StripePaymentsUI/StripePaymentsUI/Resources/StripePaymentsUI.xcassets/Cards/stp_card_unknown.imageset/cardLight.svg

<svg fill="none" height="17" viewBox="0 0 26 17" width="26" xmlns="http://www.w3.org/2000/svg"><g clip-rule="evenodd" fill="#000" fill-rule="evenodd"><path d="m21.9972 16.9999h-19.99444c-.26084.0022-.51955-.0478-.76136-.1473-.241814-.0996-.461995-.2466-.64797-.4327s-.334102-.4077-.435923-.652c-.1018215-.2444-.15534243-.5068-.157507-.7722v-11.99144c.00216457-.26541.0556855-.52778.157507-.77214.101821-.24436.249948-.46592.435923-.65203s.406156-.33312.64797-.43264c.24181-.09952.50052-.1496.76136-.14738h19.99444c.2609-.00222.5196.04786.7614.14738s.462.24653.648.43264c.1859.18611.3341.40767.4359.65203s.1553.50673.1575.77214v11.99994c-.0065.5345-.221 1.0446-.5963 1.4187-.3754.374-.8811.5815-1.4065.577zm-13.72134-11.0904c0-.38736-.28965-.69894-.64551-.69894h-4.50207c-.35587 0-.64552.31158-.64552.69894v2.81261c0 .38736.28965.69894.64552.69894h4.50207c.35586 0 .64551-.31158.64551-.69894z" fill-opacity=".2"/><path d="m20.3125 13.7621h-2.4375c-.5281 0-.8125-.2428-.8125-.8095s.2844-.8095.8125-.8095h2.4375c.5281 0 .8125.2428.8125.8095s-.2844.8095-.8125.8095zm-4.875 0h-2.4375c-.5281 0-.8125-.2428-.8125-.8095s.2844-.8095.8125-.8095h2.4375c.5281 0 .8125.2428.8125.8095s-.2844.8095-.8125.8095zm-4.875 0h-2.4375c-.52812 0-.8125-.2428-.8125-.8095s.28438-.8095.8125-.8095h2.4375c.5281 0 .8125.2428.8125.8095s-.2844.8095-.8125.8095zm-4.875 0h-2.4375c-.52812 0-.8125-.2428-.8125-.8095s.28438-.8095.8125-.8095h2.4375c.52813 0 .8125.2428.8125.8095s-.28437.8095-.8125.8095z" fill-opacity=".3"/></g></svg>

<svg width="26" height="17" viewBox="0 0 26 17" fill="none" xmlns="http://www.w3.org/2000/svg">
<path fill-rule="evenodd" clip-rule="evenodd" d="M21.9972 16.9999H2.00276C1.74192 17.0021 1.48321 16.9521 1.2414 16.8526C0.999586 16.753 0.779405 16.606 0.59343 16.4199C0.407455 16.2338 0.259328 16.0122 0.157507 15.7679C0.0556855 15.5235 0.00216457 15.2611 0 14.9957L0 3.00426C0.00216457 2.73885 0.0556855 2.47648 0.157507 2.23212C0.259328 1.98776 0.407455 1.7662 0.59343 1.58009C0.779405 1.39398 0.999586 1.24697 1.2414 1.14745C1.48321 1.04793 1.74192 0.99785 2.00276 1.00007H21.9972C22.2581 0.99785 22.5168 1.04793 22.7586 1.14745C23.0004 1.24697 23.2206 1.39398 23.4066 1.58009C23.5925 1.7662 23.7407 1.98776 23.8425 2.23212C23.9443 2.47648 23.9978 2.73885 24 3.00426V15.0042C23.9935 15.5387 23.779 16.0488 23.4037 16.4229C23.0283 16.7969 22.5226 17.0044 21.9972 16.9999ZM8.27586 5.9095C8.27586 5.52214 7.98621 5.21056 7.63035 5.21056H3.12828C2.77241 5.21056 2.48276 5.52214 2.48276 5.9095V8.72211C2.48276 9.10947 2.77241 9.42105 3.12828 9.42105H7.63035C7.98621 9.42105 8.27586 9.10947 8.27586 8.72211V5.9095Z" fill="black" fill-opacity="0.2"/>
<path fill-rule="evenodd" clip-rule="evenodd" d="M20.3125 13.7621H17.875C17.3469 13.7621 17.0625 13.5193 17.0625 12.9526C17.0625 12.3859 17.3469 12.1431 17.875 12.1431H20.3125C20.8406 12.1431 21.125 12.3859 21.125 12.9526C21.125 13.5193 20.8406 13.7621 20.3125 13.7621ZM15.4375 13.7621H13C12.4719 13.7621 12.1875 13.5193 12.1875 12.9526C12.1875 12.3859 12.4719 12.1431 13 12.1431H15.4375C15.9656 12.1431 16.25 12.3859 16.25 12.9526C16.25 13.5193 15.9656 13.7621 15.4375 13.7621ZM10.5625 13.7621H8.125C7.59688 13.7621 7.3125 13.5193 7.3125 12.9526C7.3125 12.3859 7.59688 12.1431 8.125 12.1431H10.5625C11.0906 12.1431 11.375 12.3859 11.375 12.9526C11.375 13.5193 11.0906 13.7621 10.5625 13.7621ZM5.6875 13.7621H3.25C2.72188 13.7621 2.4375 13.5193 2.4375 12.9526C2.4375 12.3859 2.72188 12.1431 3.25 12.1431H5.6875C6.21563 12.1431 6.5 12.3859 6.5 12.9526C6.5 13.5193 6.21563 13.7621 5.6875 13.7621Z" fill="black" fill-opacity="0.3"/>
</svg>
